X:103
T:Rosanna - In Oxford lived a Lady fair
Z:Jack Campin - http://www.campin.me.uk
S:Blaikie MS (NLS MS.1578) p31, Blaikie #97
M:2/4
L:1/16
V:1 midi program 1 74
V:2 midi program 1 46 bass middle = d transpose -24
Q:1/4=60
K:D Minor
[V:1] A2|AGFE F2G2|A4 z2 G2|Afed A2cc|d4 z2
[V:2] z2|d4   d4  |d4 z4   |d2f2 a2A2|d4 z2
%
[V:1] G2|Afed c3`A|F4 z2 Ac|dABG F2E2|D6 |]
[V:2] z2|d4   e4  |f4 z4   |d2g2 a2A2|d6 |]
W:Transcription (c) Jack Campin 2009, no mirroring or republication without permission

